icons/bo.svg

<?xml version="1.0" ?>
<svg xmlns="http://www.w3.org/2000/svg" xmlns:ev="http://www.w3.org/2001/xml-events" xmlns:xlink="http://www.w3.org/1999/xlink" baseProfile="full" height="600px" version="1.1" viewBox="-317.3803327753502 -1024.6962561770881 10861.384092094857 12293.412270484947" width="531px">
	<defs/>
	<path d="M 3849.0,10223.0 C 3841.0,10214.0 3802.0,10192.0 3762.0,10173.0 C 3692.0,10141.0 3688.0,10141.0 3658.0,10156.0 C 3641.0,10165.0 3600.0,10176.0 3567.0,10180.0 C 3515.0,10188.0 3499.0,10186.0 3451.0,10166.0 C 3400.0,10146.0 3391.0,10145.0 3357.0,10156.0 C 3311.0,10172.0 3242.0,10156.0 3149.0,10109.0 L 3088.0,10079.0 L 3065.0,10100.0 L 3041.0,10122.0 L 2956.0,10076.0 C 2909.0,10051.0 2833.0,10010.0 2787.0,9985.0 C 2735.0,9957.0 2683.0,9919.0 2645.0,9880.0 C 2559.0,9793.0 2523.0,9776.0 2438.0,9784.0 C 2370.0,9791.0 2370.0,9791.0 2370.0,9766.0 C 2370.0,9750.0 2362.0,9736.0 2348.0,9729.0 C 2278.0,9693.0 2170.0,9612.0 2159.0,9588.0 C 2153.0,9572.0 2140.0,9560.0 2131.0,9560.0 C 2122.0,9560.0 2102.0,9542.0 2087.0,9520.0 L 2059.0,9480.0 L 2020.0,9500.0 C 1976.0,9522.0 1898.0,9526.0 1837.0,9509.0 C 1802.0,9500.0 1796.0,9492.0 1745.0,9389.0 C 1690.0,9280.0 1689.0,9279.0 1632.0,9254.0 C 1601.0,9240.0 1551.0,9220.0 1521.0,9209.0 C 1492.0,9199.0 1453.0,9181.0 1435.0,9170.0 C 1415.0,9158.0 1385.0,9150.0 1358.0,9150.0 C 1321.0,9150.0 1311.0,9154.0 1303.0,9173.0 C 1295.0,9190.0 1296.0,9203.0 1307.0,9224.0 L 1322.0,9252.0 L 1268.0,9247.0 C 1239.0,9244.0 1198.0,9238.0 1178.0,9235.0 C 1155.0,9230.0 1124.0,9234.0 1093.0,9244.0 C 1002.0,9274.0 819.0,9302.0 742.0,9297.0 C 702.0,9295.0 667.0,9291.0 665.0,9288.0 C 662.0,9285.0 796.0,9043.0 963.0,8749.0 C 1130.0,8455.0 1283.0,8185.0 1304.0,8148.0 C 1344.0,8076.0 1344.0,8064.0 1298.0,8013.0 C 1282.0,7996.0 1280.0,7988.0 1289.0,7972.0 C 1307.0,7938.0 1302.0,7925.0 1265.0,7907.0 C 1234.0,7892.0 1230.0,7886.0 1230.0,7850.0 C 1230.0,7828.0 1226.0,7810.0 1222.0,7810.0 C 1217.0,7810.0 1206.0,7804.0 1196.0,7797.0 C 1180.0,7785.0 1180.0,7777.0 1191.0,7695.0 C 1200.0,7626.0 1200.0,7579.0 1190.0,7481.0 C 1178.0,7359.0 1177.0,7355.0 1137.0,7301.0 C 1115.0,7271.0 1087.0,7229.0 1074.0,7207.0 L 1051.0,7167.0 L 1086.0,7125.0 C 1118.0,7086.0 1120.0,7078.0 1120.0,7012.0 C 1120.0,6942.0 1121.0,6940.0 1170.0,6875.0 C 1198.0,6839.0 1220.0,6805.0 1220.0,6799.0 C 1220.0,6794.0 1198.0,6790.0 1170.0,6790.0 C 1122.0,6790.0 1120.0,6789.0 1120.0,6762.0 C 1120.0,6745.0 1110.0,6724.0 1096.0,6710.0 C 1082.0,6698.0 1068.0,6673.0 1064.0,6656.0 C 1049.0,6581.0 1018.0,6530.0 974.0,6504.0 C 934.0,6481.0 930.0,6474.0 924.0,6429.0 C 917.0,6374.0 914.0,6372.0 850.0,6349.0 C 817.0,6338.0 800.0,6324.0 786.0,6298.0 C 766.0,6263.0 766.0,6263.0 789.0,6207.0 C 808.0,6161.0 817.0,6150.0 835.0,6150.0 C 852.0,6150.0 867.0,6137.0 889.0,6103.0 C 905.0,6076.0 938.0,6034.0 961.0,6008.0 C 1001.0,5961.0 1002.0,5960.0 977.0,5960.0 C 945.0,5960.0 890.0,5889.0 890.0,5847.0 C 890.0,5823.0 887.0,5819.0 870.0,5823.0 C 854.0,5827.0 848.0,5821.0 841.0,5794.0 C 822.0,5726.0 871.0,5648.0 945.0,5629.0 C 967.0,5624.0 993.0,5616.0 1003.0,5613.0 C 1013.0,5611.0 1030.0,5587.0 1041.0,5562.0 C 1078.0,5476.0 1102.0,5454.0 1177.0,5436.0 C 1214.0,5428.0 1256.0,5419.0 1270.0,5417.0 C 1291.0,5415.0 1286.0,5410.0 1235.0,5385.0 C 1202.0,5368.0 1174.0,5355.0 1172.0,5354.0 C 1170.0,5353.0 1177.0,5323.0 1187.0,5289.0 L 1206.0,5225.0 L 1300.0,5225.0 C 1384.0,5225.0 1394.0,5223.0 1400.0,5205.0 C 1413.0,5171.0 1394.0,5150.0 1351.0,5150.0 C 1313.0,5150.0 1312.0,5149.0 1306.0,5106.0 L 1299.0,5062.0 L 1217.0,5053.0 C 1151.0,5047.0 1135.0,5042.0 1132.0,5027.0 C 1129.0,5013.0 1136.0,5010.0 1169.0,5010.0 C 1217.0,5010.0 1223.0,5002.0 1209.0,4961.0 C 1196.0,4925.0 1196.0,4925.0 1140.0,4945.0 C 1117.0,4953.0 1096.0,4960.0 1094.0,4960.0 C 1093.0,4960.0 1090.0,4946.0 1088.0,4928.0 C 1085.0,4901.0 1075.0,4891.0 1016.0,4854.0 C 965.0,4824.0 941.0,4802.0 927.0,4774.0 C 886.0,4690.0 776.0,4540.0 757.0,4540.0 C 747.0,4540.0 712.0,4524.0 680.0,4504.0 C 632.0,4474.0 619.0,4460.0 607.0,4425.0 L 592.0,4383.0 L 650.0,4355.0 C 707.0,4328.0 708.0,4327.0 714.0,4276.0 C 717.0,4248.0 720.0,4204.0 720.0,4179.0 C 720.0,4136.0 723.0,4131.0 761.0,4104.0 C 817.0,4065.0 842.0,4014.0 838.0,3943.0 L 835.0,3886.0 L 912.0,3841.0 C 954.0,3816.0 992.0,3792.0 995.0,3788.0 C 999.0,3785.0 996.0,3764.0 990.0,3743.0 C 979.0,3707.0 980.0,3699.0 1004.0,3652.0 C 1038.0,3586.0 1055.0,3475.0 1041.0,3412.0 C 1032.0,3369.0 1033.0,3363.0 1055.0,3340.0 C 1072.0,3322.0 1077.0,3308.0 1073.0,3288.0 C 1070.0,3270.0 1075.0,3252.0 1089.0,3234.0 C 1106.0,3212.0 1110.0,3194.0 1110.0,3129.0 L 1110.0,3050.0 L 1152.0,3024.0 C 1223.0,2979.0 1308.0,2900.0 1319.0,2869.0 C 1327.0,2846.0 1335.0,2840.0 1357.0,2840.0 C 1376.0,2839.0 1402.0,2824.0 1437.0,2792.0 L 1490.0,2745.0 L 1431.0,2654.0 C 1383.0,2582.0 1363.0,2560.0 1331.0,2545.0 C 1272.0,2519.0 1277.0,2495.0 1349.0,2441.0 L 1408.0,2397.0 L 1391.0,2336.0 C 1371.0,2268.0 1350.0,2251.0 1272.0,2242.0 C 1221.0,2236.0 1209.0,2218.0 1238.0,2187.0 C 1249.0,2175.0 1261.0,2143.0 1265.0,2115.0 C 1269.0,2088.0 1279.0,2058.0 1287.0,2049.0 C 1299.0,2034.0 1297.0,2030.0 1266.0,2010.0 C 1226.0,1986.0 1225.0,1982.0 1244.0,1937.0 C 1255.0,1911.0 1277.0,1895.0 1354.0,1855.0 L 1450.0,1805.0 L 1415.0,1775.0 C 1383.0,1748.0 1379.0,1738.0 1370.0,1670.0 C 1361.0,1597.0 1361.0,1594.0 1386.0,1573.0 C 1401.0,1559.0 1424.0,1550.0 1443.0,1550.0 C 1473.0,1550.0 1484.0,1540.0 1563.0,1438.0 L 1649.0,1325.0 L 1650.0,1181.0 L 1650.0,1037.0 L 1686.0,993.0 L 1723.0,948.0 L 1716.0,854.0 C 1712.0,802.0 1712.0,760.0 1717.0,760.0 C 1721.0,759.0 1742.0,744.0 1763.0,726.0 L 1802.0,694.0 L 1787.0,658.0 C 1773.0,624.0 1773.0,621.0 1796.0,599.0 C 1819.0,576.0 1819.0,574.0 1805.0,521.0 C 1792.0,471.0 1792.0,465.0 1809.0,441.0 C 1835.0,404.0 1842.0,352.0 1840.0,218.0 C 1838.0,107.0 1839.0,102.0 1860.0,95.0 C 1871.0,91.0 1885.0,78.0 1890.0,65.0 C 1904.0,28.0 2002.0,27.0 2155.0,63.0 C 2348.0,108.0 2345.0,106.0 2365.0,144.0 C 2375.0,162.0 2400.0,188.0 2422.0,201.0 C 2457.0,223.0 2460.0,229.0 2460.0,268.0 C 2460.0,305.0 2462.0,311.0 2478.0,306.0 C 2490.0,302.0 2504.0,307.0 2515.0,320.0 C 2525.0,331.0 2557.0,348.0 2587.0,357.0 C 2630.0,371.0 2640.0,378.0 2640.0,396.0 C 2640.0,408.0 2649.0,443.0 2661.0,473.0 L 2682.0,528.0 L 2829.0,580.0 C 2909.0,608.0 2981.0,639.0 2988.0,648.0 C 2994.0,657.0 3000.0,683.0 3000.0,707.0 C 3000.0,731.0 3009.0,768.0 3020.0,790.0 C 3031.0,812.0 3040.0,841.0 3040.0,855.0 C 3040.0,870.0 3044.0,880.0 3048.0,878.0 C 3053.0,877.0 3082.0,862.0 3113.0,845.0 C 3165.0,818.0 3170.0,812.0 3170.0,781.0 L 3170.0,747.0 L 3223.0,753.0 L 3275.0,758.0 L 3325.0,684.0 C 3369.0,620.0 3380.0,609.0 3415.0,602.0 C 3447.0,595.0 3458.0,596.0 3470.0,609.0 C 3483.0,623.0 3510.0,624.0 3690.0,620.0 C 3884.0,615.0 3897.0,614.0 3924.0,593.0 C 3943.0,578.0 3966.0,570.0 3992.0,570.0 C 4013.0,570.0 4044.0,563.0 4059.0,555.0 C 4075.0,547.0 4106.0,538.0 4127.0,534.0 C 4150.0,531.0 4183.0,514.0 4204.0,496.0 L 4242.0,465.0 L 4225.0,428.0 L 4207.0,392.0 L 4264.0,319.0 C 4317.0,251.0 4320.0,243.0 4320.0,190.0 C 4320.0,143.0 4324.0,130.0 4345.0,110.0 C 4362.0,94.0 4370.0,76.0 4370.0,54.0 C 4370.0,31.0 4376.0,17.0 4390.0,10.0 C 4414.0,-3.0 4410.0,-11.0 4466.0,168.0 C 4497.0,271.0 4508.0,294.0 4527.0,301.0 C 4541.0,306.0 4557.0,326.0 4566.0,347.0 C 4575.0,368.0 4609.0,442.0 4642.0,512.0 L 4703.0,640.0 L 4770.0,640.0 C 4822.0,640.0 4843.0,636.0 4863.0,620.0 C 4885.0,602.0 4890.0,602.0 4897.0,615.0 C 4905.0,628.0 4938.0,627.0 5185.0,609.0 C 5561.0,583.0 5530.0,590.0 5530.0,530.0 C 5530.0,485.0 5533.0,479.0 5577.0,441.0 C 5610.0,413.0 5627.0,405.0 5631.0,413.0 C 5635.0,420.0 5713.0,627.0 5804.0,873.0 L 5970.0,1322.0 L 5970.0,1513.0 L 5971.0,1705.0 L 6106.0,1863.0 L 6242.0,2021.0 L 6325.0,2213.0 L 6407.0,2405.0 L 6841.0,2451.0 C 7259.0,2496.0 7283.0,2500.0 7490.0,2552.0 L 7705.0,2606.0 L 8040.0,2564.0 L 8375.0,2523.0 L 8681.0,2335.0 C 8940.0,2176.0 8990.0,2141.0 9004.0,2112.0 C 9020.0,2080.0 9020.0,2078.0 9002.0,2073.0 C 8985.0,2069.0 8985.0,2065.0 9006.0,1964.0 C 9018.0,1906.0 9031.0,1856.0 9034.0,1853.0 C 9037.0,1850.0 9069.0,1864.0 9105.0,1884.0 C 9143.0,1905.0 9185.0,1920.0 9204.0,1920.0 C 9234.0,1920.0 9238.0,1924.0 9244.0,1952.0 C 9250.0,1982.0 9245.0,1990.0 9160.0,2075.0 L 9069.0,2166.0 L 9226.0,2433.0 C 9337.0,2624.0 9387.0,2700.0 9400.0,2700.0 C 9433.0,2700.0 9442.0,2799.0 9411.0,2821.0 C 9393.0,2834.0 9396.0,2845.0 9483.0,3073.0 C 9569.0,3299.0 9575.0,3311.0 9602.0,3317.0 C 9643.0,3325.0 9645.0,3335.0 9610.0,3385.0 C 9593.0,3410.0 9568.0,3459.0 9554.0,3496.0 C 9541.0,3532.0 9521.0,3579.0 9510.0,3600.0 C 9486.0,3647.0 9486.0,3648.0 9505.0,3652.0 C 9517.0,3654.0 9513.0,3671.0 9485.0,3734.0 C 9454.0,3805.0 9452.0,3816.0 9465.0,3830.0 C 9473.0,3839.0 9480.0,3849.0 9480.0,3853.0 C 9480.0,3856.0 9455.0,3880.0 9424.0,3906.0 L 9368.0,3954.0 L 9341.0,3922.0 L 9315.0,3889.0 L 9290.0,3915.0 C 9276.0,3930.0 9232.0,3965.0 9192.0,3994.0 C 9101.0,4057.0 9027.0,4154.0 9005.0,4237.0 C 8997.0,4269.0 8990.0,4303.0 8990.0,4313.0 C 8990.0,4323.0 8980.0,4354.0 8968.0,4382.0 C 8947.0,4430.0 8947.0,4433.0 8965.0,4462.0 C 8975.0,4479.0 8989.0,4527.0 8996.0,4569.0 C 9009.0,4645.0 9015.0,4654.0 9069.0,4690.0 C 9086.0,4702.0 9092.0,4718.0 9097.0,4762.0 C 9101.0,4807.0 9107.0,4819.0 9123.0,4824.0 C 9140.0,4828.0 9141.0,4834.0 9135.0,4867.0 C 9131.0,4888.0 9126.0,4908.0 9124.0,4912.0 C 9114.0,4928.0 9085.0,4919.0 9055.0,4891.0 L 9025.0,4862.0 L 8377.0,4929.0 C 8021.0,4967.0 7726.0,5000.0 7723.0,5004.0 C 7716.0,5010.0 7703.0,5339.0 7701.0,5521.0 L 7700.0,5598.0 L 7575.0,5754.0 C 7506.0,5839.0 7450.0,5912.0 7450.0,5915.0 C 7450.0,5918.0 7509.0,5917.0 7580.0,5913.0 L 7710.0,5907.0 L 7710.0,6016.0 C 7710.0,6076.0 7713.0,6141.0 7716.0,6161.0 C 7721.0,6191.0 7717.0,6202.0 7691.0,6232.0 C 7662.0,6266.0 7660.0,6272.0 7666.0,6322.0 C 7671.0,6370.0 7670.0,6377.0 7646.0,6399.0 C 7632.0,6413.0 7620.0,6431.0 7620.0,6439.0 C 7620.0,6448.0 7606.0,6486.0 7590.0,6525.0 C 7553.0,6611.0 7552.0,6650.0 7586.0,6717.0 L 7613.0,6769.0 L 7595.0,6848.0 C 7578.0,6922.0 7574.0,6929.0 7543.0,6944.0 C 7524.0,6953.0 7501.0,6960.0 7491.0,6960.0 C 7481.0,6960.0 7465.0,6969.0 7454.0,6981.0 C 7444.0,6993.0 7417.0,7011.0 7395.0,7022.0 C 7373.0,7034.0 7344.0,7051.0 7331.0,7061.0 C 7318.0,7072.0 7299.0,7080.0 7290.0,7080.0 C 7280.0,7080.0 7265.0,7091.0 7256.0,7105.0 C 7247.0,7119.0 7229.0,7132.0 7215.0,7136.0 C 7197.0,7140.0 7190.0,7150.0 7188.0,7173.0 C 7186.0,7199.0 7180.0,7206.0 7158.0,7208.0 C 7140.0,7210.0 7127.0,7204.0 7117.0,7190.0 C 7103.0,7169.0 7099.0,7169.0 7046.0,7181.0 C 7002.0,7191.0 6975.0,7191.0 6926.0,7182.0 C 6840.0,7166.0 6795.0,7167.0 6758.0,7186.0 C 6731.0,7200.0 6718.0,7201.0 6677.0,7191.0 C 6614.0,7177.0 6547.0,7177.0 6532.0,7192.0 C 6525.0,7199.0 6520.0,7218.0 6520.0,7235.0 C 6520.0,7260.0 6514.0,7268.0 6490.0,7277.0 C 6471.0,7284.0 6456.0,7299.0 6449.0,7317.0 C 6443.0,7337.0 6425.0,7353.0 6394.0,7368.0 C 6363.0,7384.0 6345.0,7400.0 6335.0,7424.0 C 6317.0,7467.0 6226.0,7510.0 6152.0,7510.0 C 6111.0,7510.0 6100.0,7514.0 6095.0,7529.0 C 6089.0,7550.0 6079.0,7554.0 6016.0,7565.0 C 5991.0,7569.0 5976.0,7578.0 5973.0,7590.0 C 5968.0,7607.0 5906.0,7630.0 5862.0,7630.0 C 5836.0,7630.0 5793.0,7679.0 5785.0,7718.0 C 5779.0,7747.0 5775.0,7750.0 5739.0,7750.0 C 5709.0,7750.0 5697.0,7755.0 5684.0,7775.0 C 5675.0,7789.0 5651.0,7809.0 5631.0,7821.0 C 5604.0,7836.0 5590.0,7853.0 5579.0,7883.0 C 5563.0,7930.0 5547.0,7933.0 5479.0,7904.0 C 5444.0,7889.0 5441.0,7889.0 5381.0,7919.0 C 5348.0,7936.0 5320.0,7957.0 5320.0,7965.0 C 5320.0,7987.0 5282.0,8008.0 5180.0,8041.0 C 5079.0,8074.0 5088.0,8073.0 4880.0,8051.0 C 4788.0,8041.0 4784.0,8041.0 4767.0,8062.0 C 4752.0,8080.0 4747.0,8082.0 4739.0,8069.0 C 4734.0,8062.0 4730.0,8051.0 4730.0,8046.0 C 4730.0,8041.0 4719.0,8049.0 4705.0,8064.0 C 4692.0,8078.0 4675.0,8090.0 4668.0,8090.0 C 4661.0,8090.0 4626.0,8104.0 4591.0,8120.0 C 4529.0,8150.0 4528.0,8151.0 4533.0,8184.0 C 4540.0,8230.0 4507.0,8262.0 4442.0,8270.0 L 4395.0,8275.0 L 4392.0,8318.0 C 4389.0,8358.0 4378.0,8371.0 4365.0,8350.0 C 4355.0,8334.0 4340.0,8339.0 4340.0,8358.0 C 4340.0,8373.0 4334.0,8375.0 4303.0,8372.0 C 4265.0,8367.0 4265.0,8367.0 4284.0,8388.0 C 4302.0,8409.0 4302.0,8410.0 4275.0,8420.0 C 4259.0,8426.0 4226.0,8434.0 4201.0,8437.0 C 4149.0,8444.0 4139.0,8453.0 4146.0,8490.0 C 4149.0,8504.0 4144.0,8529.0 4136.0,8545.0 C 4127.0,8562.0 4120.0,8584.0 4120.0,8595.0 C 4119.0,8644.0 4109.0,8660.0 4076.0,8660.0 C 4059.0,8660.0 4038.0,8655.0 4030.0,8650.0 C 4020.0,8644.0 4010.0,8646.0 3998.0,8657.0 C 3976.0,8676.0 3976.0,8692.0 3994.0,8728.0 C 4023.0,8786.0 4023.0,8795.0 3986.0,8815.0 C 3941.0,8839.0 3917.0,8911.0 3921.0,9007.0 C 3923.0,9047.0 3919.0,9084.0 3912.0,9097.0 C 3896.0,9127.0 3896.0,9127.0 3930.0,9145.0 C 3959.0,9160.0 3960.0,9163.0 3960.0,9228.0 C 3959.0,9271.0 3954.0,9302.0 3945.0,9314.0 C 3935.0,9327.0 3930.0,9358.0 3930.0,9406.0 C 3930.0,9474.0 3928.0,9480.0 3902.0,9499.0 C 3875.0,9518.0 3873.0,9522.0 3881.0,9567.0 C 3885.0,9593.0 3889.0,9633.0 3889.0,9655.0 C 3890.0,9682.0 3902.0,9719.0 3925.0,9760.0 C 3964.0,9833.0 3970.0,9893.0 3945.0,9953.0 C 3926.0,9999.0 3926.0,10059.0 3945.0,10084.0 C 3953.0,10095.0 3960.0,10109.0 3960.0,10116.0 C 3960.0,10130.0 3880.0,10240.0 3870.0,10240.0 C 3866.0,10240.0 3856.0,10233.0 3849.0,10223.0" fill="pink"/>
</svg>

<?xml version="1.0" standalone="no"?>
<!DOCTYPE svg PUBLIC "-//W3C//DTD SVG 20010904//EN"
 "http://www.w3.org/TR/2001/REC-SVG-20010904/DTD/svg10.dtd">
<svg version="1.0" xmlns="http://www.w3.org/2000/svg"
 width="1024.000000pt" height="1024.000000pt" viewBox="0 0 1024.000000 1024.000000"
 preserveAspectRatio="xMidYMid meet">
<metadata>
Created by potrace 1.10, written by Peter Selinger 2001-2011
</metadata>
<g transform="translate(0.000000,1024.000000) scale(0.100000,-0.100000)"
fill="#000000" stroke="none">
<path d="M3849 10223 c-8 -9 -47 -31 -87 -50 -70 -32 -74 -32 -104 -17 -17 9
-58 20 -91 24 -52 8 -68 6 -116 -14 -51 -20 -60 -21 -94 -10 -46 16 -115 0
-208 -47 l-61 -30 -23 21 -24 22 -85 -46 c-47 -25 -123 -66 -169 -91 -52 -28
-104 -66 -142 -105 -86 -87 -122 -104 -207 -96 -68 7 -68 7 -68 -18 0 -16 -8
-30 -22 -37 -70 -36 -178 -117 -189 -141 -6 -16 -19 -28 -28 -28 -9 0 -29 -18
-44 -40 l-28 -40 -39 20 c-44 22 -122 26 -183 9 -35 -9 -41 -17 -92 -120 -55
-109 -56 -110 -113 -135 -31 -14 -81 -34 -111 -45 -29 -10 -68 -28 -86 -39
-20 -12 -50 -20 -77 -20 -37 0 -47 4 -55 23 -8 17 -7 30 4 51 l15 28 -54 -5
c-29 -3 -70 -9 -90 -12 -23 -5 -54 -1 -85 9 -91 30 -274 58 -351 53 -40 -2
-75 -6 -77 -9 -3 -3 131 -245 298 -539 167 -294 320 -564 341 -601 40 -72 40
-84 -6 -135 -16 -17 -18 -25 -9 -41 18 -34 13 -47 -24 -65 -31 -15 -35 -21
-35 -57 0 -22 -4 -40 -8 -40 -5 0 -16 -6 -26 -13 -16 -12 -16 -20 -5 -102 9
-69 9 -116 -1 -214 -12 -122 -13 -126 -53 -180 -22 -30 -50 -72 -63 -94 l-23
-40 35 -42 c32 -39 34 -47 34 -113 0 -70 1 -72 50 -137 28 -36 50 -70 50 -76
0 -5 -22 -9 -50 -9 -48 0 -50 -1 -50 -28 0 -17 -10 -38 -24 -52 -14 -12 -28
-37 -32 -54 -15 -75 -46 -126 -90 -152 -40 -23 -44 -30 -50 -75 -7 -55 -10
-57 -74 -80 -33 -11 -50 -25 -64 -51 -20 -35 -20 -35 3 -91 19 -46 28 -57 46
-57 17 0 32 -13 54 -47 16 -27 49 -69 72 -95 40 -47 41 -48 16 -48 -32 0 -87
-71 -87 -113 0 -24 -3 -28 -20 -24 -16 4 -22 -2 -29 -29 -19 -68 30 -146 104
-165 22 -5 48 -13 58 -16 10 -2 27 -26 38 -51 37 -86 61 -108 136 -126 37 -8
79 -17 93 -19 21 -2 16 -7 -35 -32 -33 -17 -61 -30 -63 -31 -2 -1 5 -31 15
-65 l19 -64 94 0 c84 0 94 -2 100 -20 13 -34 -6 -55 -49 -55 -38 0 -39 -1 -45
-44 l-7 -44 -82 -9 c-66 -6 -82 -11 -85 -26 -3 -14 4 -17 37 -17 48 0 54 -8
40 -49 -13 -36 -13 -36 -69 -16 -23 8 -44 15 -46 15 -1 0 -4 -14 -6 -32 -3
-27 -13 -37 -72 -74 -51 -30 -75 -52 -89 -80 -41 -84 -151 -234 -170 -234 -10
0 -45 -16 -77 -36 -48 -30 -61 -44 -73 -79 l-15 -42 58 -28 c57 -27 58 -28 64
-79 3 -28 6 -72 6 -97 0 -43 3 -48 41 -75 56 -39 81 -90 77 -161 l-3 -57 77
-45 c42 -25 80 -49 83 -53 4 -3 1 -24 -5 -45 -11 -36 -10 -44 14 -91 34 -66
51 -177 37 -240 -9 -43 -8 -49 14 -72 17 -18 22 -32 18 -52 -3 -18 2 -36 16
-54 17 -22 21 -40 21 -105 l0 -79 42 -26 c71 -45 156 -124 167 -155 8 -23 16
-29 38 -29 19 -1 45 -16 80 -48 l53 -47 -59 -91 c-48 -72 -68 -94 -100 -109
-59 -26 -54 -50 18 -104 l59 -44 -17 -61 c-20 -68 -41 -85 -119 -94 -51 -6
-63 -24 -34 -55 11 -12 23 -44 27 -72 4 -27 14 -57 22 -66 12 -15 10 -19 -21
-39 -40 -24 -41 -28 -22 -73 11 -26 33 -42 110 -82 l96 -50 -35 -30 c-32 -27
-36 -37 -45 -105 -9 -73 -9 -76 16 -97 15 -14 38 -23 57 -23 30 0 41 -10 120
-112 l86 -113 1 -144 0 -144 36 -44 37 -45 -7 -94 c-4 -52 -4 -94 1 -94 4 -1
25 -16 46 -34 l39 -32 -15 -36 c-14 -34 -14 -37 9 -59 23 -23 23 -25 9 -78
-13 -50 -13 -56 4 -80 26 -37 33 -89 31 -223 -2 -111 -1 -116 20 -123 11 -4
25 -17 30 -30 14 -37 112 -38 265 -2 193 45 190 43 210 81 10 18 35 44 57 57
35 22 38 28 38 67 0 37 2 43 18 38 12 -4 26 1 37 14 10 11 42 28 72 37 43 14
53 21 53 39 0 12 9 47 21 77 l21 55 147 52 c80 28 152 59 159 68 6 9 12 35 12
59 0 24 9 61 20 83 11 22 20 51 20 65 0 15 4 25 8 23 5 -1 34 -16 65 -33 52
-27 57 -33 57 -64 l0 -34 53 6 52 5 50 -74 c44 -64 55 -75 90 -82 32 -7 43 -6
55 7 13 14 40 15 220 11 194 -5 207 -6 234 -27 19 -15 42 -23 68 -23 21 0 52
-7 67 -15 16 -8 47 -17 68 -21 23 -3 56 -20 77 -38 l38 -31 -17 -37 -18 -36
57 -73 c53 -68 56 -76 56 -129 0 -47 4 -60 25 -80 17 -16 25 -34 25 -56 0 -23
6 -37 20 -44 24 -13 20 -21 76 158 31 103 42 126 61 133 14 5 30 25 39 46 9
21 43 95 76 165 l61 128 67 0 c52 0 73 -4 93 -20 22 -18 27 -18 34 -5 8 13 41
12 288 -6 376 -26 345 -19 345 -79 0 -45 3 -51 47 -89 33 -28 50 -36 54 -28 4
7 82 214 173 460 l166 449 0 191 1 192 135 158 136 158 83 192 82 192 434 46
c418 45 442 49 649 101 l215 54 335 -42 335 -41 306 -188 c259 -159 309 -194
323 -223 16 -32 16 -34 -2 -39 -17 -4 -17 -8 4 -109 12 -58 25 -108 28 -111 3
-3 35 11 71 31 38 21 80 36 99 36 30 0 34 4 40 32 6 30 1 38 -84 123 l-91 91
157 267 c111 191 161 267 174 267 33 0 42 99 11 121 -18 13 -15 24 72 252 86
226 92 238 119 244 41 8 43 18 8 68 -17 25 -42 74 -56 111 -13 36 -33 83 -44
104 -24 47 -24 48 -5 52 12 2 8 19 -20 82 -31 71 -33 82 -20 96 8 9 15 19 15
23 0 3 -25 27 -56 53 l-56 48 -27 -32 -26 -33 -25 26 c-14 15 -58 50 -98 79
-91 63 -165 160 -187 243 -8 32 -15 66 -15 76 0 10 -10 41 -22 69 -21 48 -21
51 -3 80 10 17 24 65 31 107 13 76 19 85 73 121 17 12 23 28 28 72 4 45 10 57
26 62 17 4 18 10 12 43 -4 21 -9 41 -11 45 -10 16 -39 7 -69 -21 l-30 -29
-648 67 c-356 38 -651 71 -654 75 -7 6 -20 335 -22 517 l-1 77 -125 156 c-69
85 -125 158 -125 161 0 3 59 2 130 -2 l130 -6 0 109 c0 60 3 125 6 145 5 30 1
41 -25 71 -29 34 -31 40 -25 90 5 48 4 55 -20 77 -14 14 -26 32 -26 40 0 9
-14 47 -30 86 -37 86 -38 125 -4 192 l27 52 -18 79 c-17 74 -21 81 -52 96 -19
9 -42 16 -52 16 -10 0 -26 9 -37 21 -10 12 -37 30 -59 41 -22 12 -51 29 -64
39 -13 11 -32 19 -41 19 -10 0 -25 11 -34 25 -9 14 -27 27 -41 31 -18 4 -25
14 -27 37 -2 26 -8 33 -30 35 -18 2 -31 -4 -41 -18 -14 -21 -18 -21 -71 -9
-44 10 -71 10 -120 1 -86 -16 -131 -15 -168 4 -27 14 -40 15 -81 5 -63 -14
-130 -14 -145 1 -7 7 -12 26 -12 43 0 25 -6 33 -30 42 -19 7 -34 22 -41 40 -6
20 -24 36 -55 51 -31 16 -49 32 -59 56 -18 43 -109 86 -183 86 -41 0 -52 4
-57 19 -6 21 -16 25 -79 36 -25 4 -40 13 -43 25 -5 17 -67 40 -111 40 -26 0
-69 49 -77 88 -6 29 -10 32 -46 32 -30 0 -42 5 -55 25 -9 14 -33 34 -53 46
-27 15 -41 32 -52 62 -16 47 -32 50 -100 21 -35 -15 -38 -15 -98 15 -33 17
-61 38 -61 46 0 22 -38 43 -140 76 -101 33 -92 32 -300 10 -92 -10 -96 -10
-113 11 -15 18 -20 20 -28 7 -5 -7 -9 -18 -9 -23 0 -5 -11 3 -25 18 -13 14
-30 26 -37 26 -7 0 -42 14 -77 30 -62 30 -63 31 -58 64 7 46 -26 78 -91 86
l-47 5 -3 43 c-3 40 -14 53 -27 32 -10 -16 -25 -11 -25 8 0 15 -6 17 -37 14
-38 -5 -38 -5 -19 16 18 21 18 22 -9 32 -16 6 -49 14 -74 17 -52 7 -62 16 -55
53 3 14 -2 39 -10 55 -9 17 -16 39 -16 50 -1 49 -11 65 -44 65 -17 0 -38 -5
-46 -10 -10 -6 -20 -4 -32 7 -22 19 -22 35 -4 71 29 58 29 67 -8 87 -45 24
-69 96 -65 192 2 40 -2 77 -9 90 -16 30 -16 30 18 48 29 15 30 18 30 83 -1 43
-6 74 -15 86 -10 13 -15 44 -15 92 0 68 -2 74 -28 93 -27 19 -29 23 -21 68 4
26 8 66 8 88 1 27 13 64 36 105 39 73 45 133 20 193 -19 46 -19 106 0 131 8
11 15 25 15 32 0 14 -80 124 -90 124 -4 0 -14 -7 -21 -17z"/>
</g>
</svg>
